app/themes/uggwc_pro/assets/images/thema/Statistik.svg

<svg width="16" height="16" viewBox="0 0 16 16" fill="none" xmlns="http://www.w3.org/2000/svg">
<g clip-path="url(#clip0_111_182)">
<path d="M5.71429 1.71429C5.71429 0.767857 6.48214 0 7.42857 0H8.57143C9.51786 0 10.2857 0.767857 10.2857 1.71429V14.2857C10.2857 15.2321 9.51786 16 8.57143 16H7.42857C6.48214 16 5.71429 15.2321 5.71429 14.2857V1.71429ZM0 8.57143C0 7.625 0.767857 6.85714 1.71429 6.85714H2.85714C3.80357 6.85714 4.57143 7.625 4.57143 8.57143V14.2857C4.57143 15.2321 3.80357 16 2.85714 16H1.71429C0.767857 16 0 15.2321 0 14.2857V8.57143ZM13.1429 2.28571H14.2857C15.2321 2.28571 16 3.05357 16 4V14.2857C16 15.2321 15.2321 16 14.2857 16H13.1429C12.1964 16 11.4286 15.2321 11.4286 14.2857V4C11.4286 3.05357 12.1964 2.28571 13.1429 2.28571Z" fill="#6E6CFF"/>
</g>
<defs>
<clipPath id="clip0_111_182">
<rect width="16" height="16" fill="white"/>
</clipPath>
</defs>
</svg>

<svg width="16" height="16" fill="none" xmlns="http://www.w3.org/2000/svg"><g clip-path="url(#a)"><path d="M5.714 1.714C5.714.768 6.482 0 7.43 0H8.57c.947 0 1.715.768 1.715 1.714v12.572c0 .946-.768 1.714-1.715 1.714H7.43a1.715 1.715 0 0 1-1.715-1.714V1.714zM0 8.571c0-.946.768-1.714 1.714-1.714h1.143c.947 0 1.714.768 1.714 1.714v5.715c0 .946-.767 1.714-1.714 1.714H1.714A1.715 1.715 0 0 1 0 14.286V8.57zm13.143-6.285h1.143C15.232 2.286 16 3.054 16 4v10.286c0 .946-.768 1.714-1.714 1.714h-1.143a1.715 1.715 0 0 1-1.714-1.714V4c0-.946.767-1.714 1.714-1.714z" fill="#6E6CFF"/></g><defs><clipPath id="a"><path fill="#fff" d="M0 0h16v16H0z"/></clipPath></defs></svg>
